X: 20
T: Tant ha bon oeul
N: Derived from Com3040-Tant_ha_bon_oeul.krn
C: Loyset Comp\`ere
%%abc-version 2.0
%%abcx-abcm2ps-target-version 5.9.1 (29 Sep 2008)
%%abc-creator hum2abc beta
%%abcx-conversion-date 2019/02/16 20:28:09
%%abc-edited-by Jesse Rodin
%%abc-edited-by Megan K. Eagen 2013/11/30
%%abcx-initial-encoding-date 2013/11/30/
%%humdrum-veritas 50997868
%%humdrum-veritas-data 3518747947
%%linebreak <none>
%%barnumbers 0
L: 1/4
M: 2/1
Q: 1/2=120
V: 1 clef=treble
V: 2 clef=treble-8
V: 3 clef=bass
K: F
[V:1] z8 | 
[V:2] z8 | 
[V:3] E,8 | 
[V:1] z8 | 
[V:2] z8 | 
[V:3] D,6E,2 | 
[V:1] z8 | 
[V:2] z4E4 | 
[V:3] F,4G,4 | 
[V:1] z8 | 
[V:2] D6E2 | 
[V:3] F,4D,4- | 
[V:1] z4E4 | 
[V:2] F4G4- | 
[V:3] D,4C,4 | 
[V:1] D4D4 | 
[V:2] G2A2B4 | 
[V:3] B,,4G,,4 | 
[V:1] F6ED | 
[V:2] A6GF | 
[V:3] A,,2F,,2A,,2B,,2 | 
[V:1] C4z2C2 | 
[V:2] E4z2E2 | 
[V:3] C,4A,,4 | 
[V:1] D4D4 | 
[V:2] D2F4ED | 
[V:3] B,,4F,4 | 
[V:1] E4E4 | 
[V:2] CDEFGA=Bc | 
[V:3] G,3F,E,2D,C, | 
[V:1] F2G3FED | 
[V:2] d2c4=B2 | 
[V:3] B,,2_E,2D,4 | 
[V:1] E2F2G2A2- | 
[V:2] c2=BAG2F2 | 
[V:3] C,3D,E,2F,2- | 
[V:1] A2GFGFED | 
[V:2] c4=B4 | 
[V:3] F,E,A,4G,2 | 
[V:1] F2E3DC=B, | 
[V:2] A4G4 | 
[V:3] A,2A,,2B,,2C,2 | 
[V:1] A,3=B,C2D2 | 
[V:2] F4E2D2 | 
[V:3] D,4A,,2B,,2 | 
[V:1] E2D4^C2 | 
[V:2] G2F2E4 | 
[V:3] C,2D,2A,,4 | 
[V:1] D8 | 
[V:2] D2F4ED | 
[V:3] z4F,4 | 
[V:1] z8 | 
[V:2] CDEFG2F2- | 
[V:3] E,6F,2 | 
[V:1] z4=B,4 | 
[V:2] F2EDE4 | 
[V:3] G,4G,4 | 
[V:1] A,6=B,2 | 
[V:2] F8 | 
[V:3] F,2A,4G,F, | 
[V:1] C4C4 | 
[V:2] z4E4 | 
[V:3] E,2C,4B,,A,, | 
[V:1] D8 | 
[V:2] D4F4 | 
[V:3] B,,3C,D,2B,,2 | 
[V:1] E4z2DC | 
[V:2] E3FG2A2 | 
[V:3] C,3D,E,2F,2- | 
[V:1] D2E2F2G2 | 
[V:2] =B2c2d2=B2 | 
[V:3] F,2E,2D,4 | 
[V:1] E4C2D2- | 
[V:2] c4A2=B2- | 
[V:3] C,2E,2F,2G,2- | 
[V:1] DC=B,A,B,4 | 
[V:2] BA^G^F^G4 | 
[V:3] G,A,E,F,E,4 | 
[V:1] A,8 | 
[V:2] A8 | 
[V:3] z4A,,4 | 
[V:1] z4D4 | 
[V:2] z4F4 | 
[V:3] B,,4B,,4 | 
[V:1] C8 | 
[V:2] E8 | 
[V:3] C,D,E,F,G,2F,E, | 
[V:1] D4F4 | 
[V:2] D4D4 | 
[V:3] F,E,D,C,=B,,3A,, | 
[V:1] E4E4 | 
[V:2] C8 | 
[V:3] C,4A,,4 | 
[V:1] D2F4ED | 
[V:2] D3EF2G2 | 
[V:3] B,,8 | 
[V:1] C2E2F2G2- | 
[V:2] A2=Bcd2c2 | 
[V:3] A,,4z4 | 
[V:1] GFF4E2 | 
[V:2] =B2A2G4 | 
[V:3] z2A,,2B,,2C,2 | 
[V:1] F4A4 | 
[V:2] F8 | 
[V:3] D,4F,4 | 
[V:1] G2F4ED | 
[V:2] B8 | 
[V:3] _E,2D,4C,B,, | 
[V:1] E2F2GFED | 
[V:2] A4B4 | 
[V:3] C,2D,2G,,2B,,2 | 
[V:1] C2F2E2A,2 | 
[V:2] c2BAG2F2 | 
[V:3] A,,3B,,C,2D,2- | 
[V:1] =B,2C2D3E | 
[V:2] D2E2F2G2 | 
[V:3] D,2C,2B,,4 | 
[V:1] C8 | 
[V:2] A6GF | 
[V:3] A,,4z2A,,2 | 
[V:1] z4C4 | 
[V:2] E8 | 
[V:3] A,,4A,,4 | 
[V:1] F8 | 
[V:2] D4z2D2 | 
[V:3] B,,2A,,G,,F,,2F,2- | 
[V:1] F6ED | 
[V:2] A4=B4 | 
[V:3] F,E,D,C,D,4 | 
[V:1] E4z2E2 | 
[V:2] c6=BA | 
[V:3] C,8 | 
[V:1] G8 | 
[V:2] =B2c2=B2e2- | 
[V:3] z4E,4 | 
[V:1] G8 | 
[V:2] e2dc=B4 | 
[V:3] E,8 | 
[V:1] A4G2F2- | 
[V:2] A3=Bc2d2- | 
[V:3] F,4E,2D,2 | 
[V:1] F2EDC2B,2 | 
[V:2] d2c=Bc2d2 | 
[V:3] F,2G,2A,2B,2 | 
[V:1] C3DE2F2 | 
[V:2] c2A4GF | 
[V:3] A,2C4B,A, | 
[V:1] G2A2F2B2- | 
[V:2] E2D2d4 | 
[V:3] G,2F,2B,A,G,F, | 
[V:1] BAA4^G2 | 
[V:2] c2A2=B4 | 
[V:3] E,2F,2E,4 | 
[V:1] A8 | 
[V:2] A8 | 
[V:3] A,,4z2F,2 | 
[V:1] z8 | 
[V:2] z4G4 | 
[V:3] E,4E,4 | 
[V:1] z4B4 | 
[V:2] F4G4 | 
[V:3] D,2B,,4A,,G,, | 
[V:1] A8 | 
[V:2] A6GF | 
[V:3] F,,G,,A,,B,,C,2D,2 | 
[V:1] G4z2G2 | 
[V:2] E8 | 
[V:3] E,2C,2G,4 | 
[V:1] A6GF | 
[V:2] DEFGA2=B2 | 
[V:3] F,6E,D, | 
[V:1] E2D2E4 | 
[V:2] c2d4^c2 | 
[V:3] A,2B,2A,4 | 
[V:1] D4F4 | 
[V:2] d2c=BA2=B2 | 
[V:3] D,2F,4E,D, | 
[V:1] E2C2E2F2 | 
[V:2] c2=BAG2A2 | 
[V:3] C,2E,4D,2 | 
[V:1] G2FED2E2 | 
[V:2] B2AGF2G2 | 
[V:3] B,,2D,4C,2 | 
[V:1] F2EDC2D2 | 
[V:2] A2GFE2F2 | 
[V:3] A,,2C,4B,,2 | 
[V:1] E2DCB,2A,2 | 
[V:2] G2FED2C2 | 
[V:3] G,,2A,,2B,,2C,2 | 
[V:1] B,2D4^C2 | 
[V:2] D4E4 | 
[V:3] G,,2B,,2A,,4 | 
[V:1] D8 |]  
[V:2] D8 |]  
[V:3] D,8 |]  



